svg/terminal.svg

<svg width="32" height="32" viewBox="0 0 32 32" fill="none" xmlns="http://www.w3.org/2000/svg">
<path fill-rule="evenodd" clip-rule="evenodd" d="M5.2318 8.10984C4.87824 8.53411 4.93556 9.16467 5.35982 9.51823C7.00492 10.8952 10.8254 14.2797 12.1345 16C10.8034 17.7492 7.03447 21.085 5.35982 22.4818C4.93556 22.8354 4.87824 23.4659 5.2318 23.8902C5.58536 24.3145 6.21631 24.3715 6.64059 24.0179C8.48019 22.4863 12.4403 19.0249 13.8414 17.0535C14.0596 16.7423 14.25 16.3902 14.25 16C14.25 15.6099 14.0596 15.2578 13.8414 14.9465C12.4685 13.0149 8.44214 9.48514 6.64146 7.98285L6.6402 7.9818C6.21593 7.62824 5.58536 7.68556 5.2318 8.10984Z" fill="black"/>
<path fill-rule="evenodd" clip-rule="evenodd" d="M13 23C13 22.448 13.448 22 14 22H26C26.552 22 27 22.448 27 23C27 23.552 26.552 24 26 24H14C13.448 24 13 23.552 13 23Z" fill="black"/>
</svg>

<svg width="32" height="32" fill="none" xmlns="http://www.w3.org/2000/svg"><path fill-rule="evenodd" clip-rule="evenodd" d="M5.232 8.11a1 1 0 0 0 .128 1.408c1.645 1.377 5.465 4.762 6.774 6.482-1.33 1.75-5.1 5.085-6.774 6.482a1 1 0 1 0 1.28 1.536c1.84-1.532 5.8-4.993 7.201-6.965.219-.31.409-.663.409-1.053 0-.39-.19-.742-.409-1.053-1.372-1.932-5.399-5.462-7.2-6.964v-.001a1 1 0 0 0-1.41.128zM13 23a1 1 0 0 1 1-1h12a1 1 0 0 1 0 2H14a1 1 0 0 1-1-1z" fill="#000"/></svg>
